X: 41213
T: Trollpolska
R: waltz
M: 3/4
K: Fmajor
D2|G2GD G2B2|d6 Bc|d2dB d2de|c2cB A2AB|
c2cd e2dc|BcBA G2FG|A2AF D2EF|G6:|

